X: 4
T:Banshee, The
M:C|
L:1/8
Q:200
C:John McMahon
S:THSP
R:reel
Z:
K:G
"G"~G3D EDB,D|GFGB "C"d2Bd|"G"eged BAGA|"C"BAGE "D"EDDE|
"G"~G3D EDB,D|GFGB "C"d2Bd|"G"eged "C"BAGA|"D"BAGE EDD2:|:
"Am"eaag efge|"Em"dBBA B3d|eB~B2 "D"gBfB|"Em"eBBA B3d|
"Am"eaag efge|"Em"dBBA B3d|"G"eged BAGA|"C"BAGE "D"EDD2:||
